Quickit/src/img/icons/github--mob.svg

<svg width="29" height="30" viewBox="0 0 29 30" fill="none" xmlns="http://www.w3.org/2000/svg">
<path d="M10.75 25.4997C4.3 27.5997 4.3 21.7497 1.75 20.9997M19.75 28.4997V23.2497C19.75 21.7497 19.9 21.1497 19 20.2497C23.2 19.7997 27.25 18.1497 27.25 11.2497C27.2482 9.45713 26.5488 7.73564 25.3 6.44968C25.8857 4.89263 25.8318 3.16712 25.15 1.64968C25.15 1.64968 23.5 1.19968 19.9 3.59968C16.8509 2.80556 13.6491 2.80556 10.6 3.59968C7 1.19968 5.35 1.64968 5.35 1.64968C4.66822 3.16712 4.6143 4.89263 5.2 6.44968C3.95118 7.73564 3.25183 9.45713 3.25 11.2497C3.25 18.1497 7.3 19.7997 11.5 20.2497C10.6 21.1497 10.6 22.0497 10.75 23.2497V28.4997" stroke="white" stroke-width="2" stroke-linecap="round" stroke-linejoin="round"/>
</svg>

<svg xmlns="http://www.w3.org/2000/svg" width="29" height="30" fill="none" xmlns:v="https://vecta.io/nano"><path d="M10.75 25.5c-6.45 2.1-6.45-3.75-9-4.5m18 7.5v-5.25c0-1.5.15-2.1-.75-3 4.2-.45 8.25-2.1 8.25-9a6.9 6.9 0 0 0-1.95-4.8 6.3 6.3 0 0 0-.15-4.8S23.5 1.2 19.9 3.6a18.45 18.45 0 0 0-9.3 0C7 1.2 5.35 1.65 5.35 1.65a6.3 6.3 0 0 0-.15 4.8 6.9 6.9 0 0 0-1.95 4.8c0 6.9 4.05 8.55 8.25 9-.9.9-.9 1.8-.75 3v5.25" stroke="#fff" stroke-width="2" stroke-linecap="round" stroke-linejoin="round"/></svg>
